X:51
T:The Sandcutter
R:reel
C: 1987, 2010 L.E. McCullough 
M:4/4
L:1/8
K:D
dB|:A~F3 EFDE|F~E3 D2BA|E~F3 EFDE|F~A3 B2dB:|
A~F3 d~f3|~g3e fedB|A~F3 ABdf|efdB e2dB|
A~F3 d~f3|~g3b a~f3|a~f3 efdB|F~A3 B2dB|]
 

